X:236
T:Paddy on the turnpike
T:Cronin's favorite
T:The mills are grinding
R:Reel
B:NE Fiddler's
B:Fiddler's Fakebook (vsn A)
B:O'Neill's 1555
B:Roche 1 n140
S:Richard Darsie's web page
Z:Transcription, chords:Mike Long
M:C|
L:1/8
K:F
GF|\
"Gm"DGGF G2GA|BG dG _eG dG|"F"DFFE F2FG|AF cF dF cF|\
"Gm"DGGF G2GA|
"(Bb)"BAGA Bcde|"F"fefd cAFA|"Gm"BG"F"AF "Gm"G2:|\
|:gf|\
"Gm"dggf g2ga|baga bagf|
"F"dffe f2fg|agfa gfdc|\
"Gm"dggf g2ga|"(Bb)"bagf dcde|"F"fefd cAFA|"Gm"BG"F"AF "Gm"G2:|
